X: 12
T: Drops Of Brandy, The
Z: UPipes & harp
S: https://thesession.org/tunes/388#setting49907
R: slip jig
M: 9/8
L: 1/8
K: Dmaj
ded BGB BGB|ded BGB cBA|ded BGB BGB|cBc AFA cBA|
ded BGB BGB|ded BGB cBA|ded BGB BGB|cBc AFA cBA||
GB/c/d gdB gdB|GB/c/d gdB cBA|GB/c/d gdB gdB|cBc AFA cBA|
GB/c/d gdB gdB|GB/c/d gdB cBA|GB/c/d gba gdB|cBc AFA cBA||

